X: 30
M: 3/4
L: 1/8
K: D
[f4A4] [f2A2] | e2 d2 "a."B2 | A3 B AG | F2 D2 F2 |\
[e4A4] [e2A2] | c2 B2 A2 | d3 c "b."d>B | A2 F2 A2 |
[f4A4] [f2A2] | e2 d2 "a."B2 | A3 B AG | F2 D2 F2 |\
[e4A4] [e2A2] | c2 B2 c2 | d6- | d2 z2 FG |
[e4A4] [e2A2] | c2 B2 c2 | d6- | d2 z2 |]
P: VAR:
"a."cB || "b."dB || "c."d2 |] y6 y6 y6 y6 y6 y6 y6 y6 y6 y6


